X:1
T:# / 3 landini: così pensoso
%%score [ 1 2 3 ]
L:1/8
Q:1/4=150
M:6/8
K:C
V:1 treble-8 nm="Sup."
V:2 treble-8 nm="T"
V:3 bass nm="Co"
V:1
 z6 | z6 | z6 | z6 | z6 | z6 | z6 | z6 | z6 | z6 | z6 | d3- d2 e | f2 e fed | e2 d c2 d | B3 B2 A | %15
w: |||||||||||Co- * *|||sì pen- *|
 c3 c3 | c2 d e2 f | e3 e2 d | g3- g2 e | gfe d2 c | dcB A2 G | A6 | G6 | d3 d3 | A2 B c2 B | %25
w: \-so- so|co- * m'a *|mor mi *|gui- * *|||\-da||Per la|ver * * *|
 d3 d3 | dcB A2 G | A3 A3 | G3 G3 | G3 G3 | z6 | c3 d3 | e2 g g2 f | g2 f e2 f | d6 | e6 | %36
w: de ri-||\-ve- ra|pas- so,|pas- so,||sen- *|\-ti, "Le- va quel|sas- * * *|so".|"Ve'l|
 d2 e fed | e3 e2 d | e2 g ^f2 e | g3 g3 | z6 | d2 f e2 d | e2 d c2 B | A3 B3 | c6 | z6 | g6 | %47
w: gran- * chio, * *|ve', ve'l *|pe- scie, pi- glia,|pi- glia."||"Que- * * *|st'è gran ma- ra|\-vi *|glia."||Co-|
 a2 g f2 g | e2 d c2 B | c3 d3 | c2 d e2 f | e2 d e2 c | d6 | z z a a2 g | a6 | z z g g2 f | %56
w: \-min- ciò I- sa|\-bel- * la *|con i-|stri- * * *||da,|"O me, o|me!"|Che ai, che|
 g3 g3 | z3 e3 | A3 A3 | A3 c2 d | e2 f def | e6 | e2 f g2 f | a3 a2 g | f2 e dec | d6 | e3 d3 | %67
w: a- i?"|"I'|son mor-|sa nel *|di * * * *|to."|"O * * *|Li- sa il|pe- * scie * *|fug-||
 c6 | z z a g2 f | e6 | e2 d c2 B | A3 G3 | A2 B ced | cBA B3 | A6 | a2 g g2 f | a6 | e2 ^f g2 f | %78
w: gie."|"I' l'o, i'|l'o."|"L'Er- mel- li- na|l'a *|pre- * * * *||\-so."|"Tie'l * ben, tie'l|ben."|"Que- * st'è *|
 g2 a g2 e | f2 e dec | e6 | e6 | d2 c c2 B | A3 A3 | e3 e2 d | e6 | d3 e3 | d6- | d6 || %89
w: bel- * la pe-|schie * * * *|ra."|In-|tan- to giun- sa|l'a- mo-|ro- sa *|schie-||\-ra.||
[M:4/4]"^Ritornello" z8 | z8 | z8 |[M:4/4][K:treble-8] z8 | z8 | z8 | z8 | z8 | e4 e2 d2 | %98
w: ||||||||Do- * *|
 e2 g2 fgef | g4 g2 f2 | a2 g2 agfg | e2 c4 Bc | d6 c2 | d2 e4 d2 | ed ^c2 B2 A2 | cBAB BA B2 | %106
w: ve * va- * * *|ghe tro- *||vai * * *|don- n'è|a * man|||
 A8 | G4 G4 | d8 | c4 e4 | f2 d2 f2 e2 | d2 c4 B2 | A8 | e4 d2 e2 | c4 d4 | e4 c4 | d8 |] %117
w: ti|che m'ac-|chol-|son a-|llor con be' sen-|bi- an- *|||||ti.|
V:2
 d3- d2 e | f2 e fed | e2"^Così pensoso""^(Caccia)" d c2 d | B3 B2 A | c3 c3 | %5
w: Co- * *|||sì pen- *|so- so|
 c2"^Francesco Landini""^(1325-1397)" d e2 f | e3 e2 d | g3- g2 e | gfe d2 c | dcB A2 G | A6 | G6 | %12
w: co- * m'a- *|* mi *|gui- * *|||da||
 d3 d3 | A2 B c2 B | d3 d3 | dcB A2 G | A3 A3 | G3 G3 | G3 G3 | z6 | c3 d3 | e2 g g2 f | %22
w: Per la|ver * * *|de ri-||ve- ra|pas- so,|pas- so,||Sen- *|\-ti, "Le- va quel|
 g2 f e2 f | d6 | e6 | d2 e fed | e3 e2 d | e2 g ^f2 e | g3 g3 | z6 | d2 f e2 d | e2 d c2 B | %32
w: sas- * * *|so."|"Ve'l|gran * chio, * *|ve', ve 'l|pe- scie, pi- glia,|pi- glia"||"Quest * è *|gran * ma- ~ra-|
 A3 B3 | c6 | z6 | g6 | a2 g f2 g | e2 d c2 B | c3 d3 | c2 d e2 f | e2 d e2 c | d6 | z z a a2 g | %43
w: vi- *|glia".||Co-|min- ciò I- sa|bel- * la *|con i-|stri * * *||da,|"O me, o|
 a6 | z z g g2 f | g3 g3 | z3 e3 | A3 A3 | A3 c2 d | e2 f def | e6 | e2 f g2 f | a3 a2 g | %53
w: me!"|"Che ai, che|a- i?"|"I'|son mor-|sa nel *|di * * * *|to."|"O * * *|Li- ~sa il|
 f2 e dec | d6 | e3 d3 | c6 | z z a g2 f | e6 | e2 d c2 B | A3 G3 | A2 B ced | cBA B3 | A6 | %64
w: pes- * ce * *|fug-||gge."|"I' l'o, i'|l'o."|"L'Er- mel- li- na|l'a *|pre- * * * *||so."|
 a2 g g2 f | a6 | e2 ^f g2 f | g2 a g2 e | f2 e dec | e6 | e6 | d2 c c2 B | A3 A3 | e3 e2 d | e6 | %75
w: "Tie' llo be- ne|ben."|"Ques- * t'è *|bel- * la *|pes- * chie * *|ra."|In-|tan- to giun- sa|l'a- mo-|ro- sa *|schie-|
 d3 e3 | d6 | c3 A3 | G6 | d2 c B2 c | A6 | c2 d e2 c | d3 d2 c | e2 d c2 B | c3 A2 B | c2 d B c2 | %86
w: |||||||||||
 d3 ^c3 | d6- | d6 ||[M:4/4] e4 e2 d2 | e2 g2 fgef | g4 g2 f2 |[M:4/4][K:treble-8] a2 g2 agfg | %93
w: |ra.||Do- ve *|* * va * * *|ghe tro- *||
 e2 c4 Bc | d6 c2 | d2 e4 d2 | ed c2 B2 A2 | cBAB BA B2 | A8 | G4 G4 | d8 | c4 e4 | f2 d2 f2 e2 | %103
w: vai * * *|don- n'è|a * man|||ti|che m'a|ccol-|son a-|llor con be' sen-|
 d2 c4 B2 | A8 | e4 d2 e2 | c2 d2 e2 c2 | z2 d2 z2 e2 | ^f2 g2 a2 f2 | g2 e4 g2 | fgfe d2 c2 | %111
w: bian * *||||||||
 d3 e c2 d2 | e4 ^c4 | A4 B4 | c4 A4 | e8 | d8 |] %117
w: |||||ti.|
V:3
 G,6 | F,6 | A,6 | G,6 | F,6 | F,3 E,3 | A,6 | G,6 | F,3 G,3- | G,3 A,3- | A,3 F,3 | G,6 | D,6 | %13
 A,6 | G,6 | F,6 | z3 A,3 | B,6 | D3 B,3- | B,3 D3 | E3 D3 | ^C6 | D6 | z6 | C3 A,3 | G,6 | A,6 | %27
 ^C6 | D6 | B,3 B,2 A, | G,6 | A,6 | C3 D3 | z z E z z C | D6 | C6 | D6 | A,6 | z3 B,3 | C6 | A,6 | %41
 G,6 | A,6 | E3 D3 | z3 E3- | E3 D3 | C6 | E6 | C6 | A,3 G,3 | A,6 | E,6 | D,6- | D,6 | z3 D3 | %55
 A,3 B,3 | C6 | A,6 | C6 | A,3 B,3 | C3 B,3 | C6 | A,3 z3 | E6 | D6 | z6 | A,3 B,3 | C6 | F,3 G,3 | %69
 A,6- | A,6 | F,3 G,3 | z3 F,3 | A,3 z3 | C6 | D3 C3 | z3 D3 | A,6 | z3 G,3 | F,3 G,3 | A,6- | %81
 A,6 | G,6 | A,6 | C3 z3 | A,6 | B,3 A,3 | G,6- | G,6 ||[M:4/4] A,8 | C4 D4 | C6 B,2 |[M:4/4] A,8 | %93
 A,8 | G,4 A,4 | G,4 G,2 F,2 | E,8 | A,8 | ^C8 | D8 | z8 | A,8 | F,8 | G,4 A,4 | ^C8 | A,4 B,4 | %106
 C8 | B,8 | z8 | C3 B, A,2 G,2 | F,8 | G,4 A,4 | ^C8 | C4 B,4 | A,8 | A,8 | G,8 |] %117

